X:53
T:Maw Canny Hinny
Z:Jack Campin, http://www.campin.me.uk/
S:Northumbrian Minstrelsy
M:3/4
L:1/8
Q:1/4=80
K:Eb
P:Chorus
     B2      B B (G`E)   |E2  A c B B/ \
  B/|B2      B B (G`E)   |E2  A c F2 |
     B B     B B (G`E)   |E2  A c B B| \
     B B     B B (G`E)   |E E A c F ||
P:Verse
E   |E E/ E/ e e  d B    |e2  c c B2 | \
     E E/ E/ e2   d B/ B/|e c B G F2||

